static/images/mobile/copyright/wikipedia-tagline-yo.svg

<?xml version="1.0" encoding="UTF-8"?>
<svg width="65px" height="14px" viewBox="0 0 65 14" version="1.1" xmlns="http://www.w3.org/2000/svg" xmlns:xlink="http://www.w3.org/1999/xlink">
    <title>yo-tagline</title>
    <g id="Page-1" stroke="none" stroke-width="1" fill="none" fill-rule="evenodd">
        <path d="M1.0985,-8.8817842e-16 C0.6435,0.156 0.3445,0.364 0.1105,0.585 L2.1125,1.404 C2.3855,1.521 2.5675,1.56 2.6715,1.56 C2.7755,1.56 2.8665,1.469 2.8665,1.365 C2.8665,1.274 2.8145,1.196 2.6715,1.092 L1.0985,-8.8817842e-16 M2.2945,9.035 L2.2945,3.822 C2.2945,2.743 2.515501,2.678 3.4255,2.639 C3.5035,2.561 3.5035,2.288 3.4255,2.21 C2.788501,2.223 2.398499,2.236 1.7355,2.236 C1.085501,2.236 0.708499,2.223 0.0585,2.21 C-0.0195,2.288 -0.0195,2.561 0.0585,2.639 C0.968499,2.678 1.1895,2.743 1.1895,3.822 L1.1895,9.035 C1.1895,10.114 0.968499,10.179 0.0585,10.218 C-0.0195,10.296 -0.0195,10.569 0.0585,10.647 C0.695499,10.634 1.085501,10.621 1.7485,10.621 C2.398499,10.621 2.775501,10.634 3.4255,10.647 C3.5035,10.569 3.5035,10.296 3.4255,10.218 C2.515501,10.179 2.2945,10.114 2.2945,9.035 M6.309875,5.447 C6.387875,5.369 6.387875,5.096 6.309875,5.018 C5.828875,5.031 5.425874,5.044 4.957875,5.044 C4.463875,5.044 4.151875,5.031 3.813875,5.018 C3.735875,5.096 3.735875,5.369 3.813875,5.447 C4.424874,5.512 4.567875,5.642 4.840875,6.318 L6.543875,10.517 C6.621875,10.699 6.725875,10.777 6.855875,10.777 C6.972875,10.777 7.076875,10.699 7.167875,10.491 L8.480875,7.293 L9.819875,10.517 C9.897875,10.699 10.001875,10.777 10.131875,10.777 C10.248875,10.777 10.352875,10.699 10.430875,10.504 L12.120875,6.383 C12.341875,5.863 12.562876,5.486 13.225875,5.447 C13.303875,5.369 13.303875,5.096 13.225875,5.018 C12.900875,5.031 12.783874,5.044 12.315875,5.044 C11.821875,5.044 11.444874,5.031 10.963875,5.018 C10.885875,5.096 10.885875,5.369 10.963875,5.447 C11.938874,5.499 11.795875,5.876 11.613875,6.331 L10.534875,9.035 C10.404875,9.36 10.391875,9.464 10.235875,9.087 L9.117875,6.24 C8.883875,5.629 8.909876,5.499 9.598875,5.447 C9.676875,5.369 9.676875,5.096 9.598875,5.018 C9.117875,5.031 8.753874,5.044 8.298875,5.044 C7.843875,5.044 7.635874,5.031 7.154875,5.018 C7.076875,5.096 7.076875,5.369 7.154875,5.447 C7.817874,5.499 7.908875,5.889 8.142875,6.461 L8.233875,6.669 L7.323875,8.97 C7.154875,9.399 7.115875,9.425 6.946875,8.996 L5.906875,6.318 C5.672875,5.694 5.685875,5.486 6.309875,5.447 M16.880094,1.898 L15.892094,3.445 C15.788094,3.614 15.749094,3.666 15.749094,3.809 C15.749094,3.9 15.840094,3.978 15.931094,3.978 C16.022094,3.978 16.126094,3.926 16.321094,3.731 L17.816094,2.314 L17.777094,2.171 C17.478094,1.885 17.140094,1.872 17.062094,1.872 C16.997094,1.872 16.919094,1.885 16.880094,1.898 M14.982094,6.955 C15.229093,5.486 16.139094,5.369 16.451094,5.369 C16.945093,5.369 17.530094,5.642 17.530094,6.734 C17.530094,6.851 17.478094,6.916 17.335094,6.916 L14.982094,6.955 M18.388094,9.412 C17.907094,9.906 17.530093,10.114 16.776094,10.114 C16.308094,10.114 15.762093,9.841 15.359094,9.178 C15.099094,8.749 14.943094,8.151 14.943094,7.397 L18.401094,7.423 C18.557093,7.423 18.648094,7.345 18.648094,7.202 C18.648094,6.11 18.258092,4.94 16.451094,4.94 C15.320095,4.94 13.851094,6.019 13.851094,7.995 C13.851094,8.723 14.033094,9.425 14.462094,9.919 C14.904093,10.439 15.515095,10.751 16.451094,10.751 C17.439093,10.751 18.141094,10.296 18.661094,9.62 C18.622094,9.49 18.544093,9.425 18.388094,9.412 M23.721547,-8.8817842e-16 C23.266547,0.156 22.967547,0.364 22.733547,0.585 L24.735547,1.404 C25.008546,1.521 25.190547,1.56 25.294547,1.56 C25.398547,1.56 25.489547,1.469 25.489547,1.365 C25.489547,1.274 25.437547,1.196 25.294547,1.092 L23.721547,-8.8817842e-16 M24.917547,9.035 L24.917547,3.822 C24.917547,2.743 25.138548,2.678 26.048547,2.639 C26.126547,2.561 26.126547,2.288 26.048547,2.21 C25.411547,2.223 25.021546,2.236 24.358547,2.236 C23.708547,2.236 23.331546,2.223 22.681547,2.21 C22.603547,2.288 22.603547,2.561 22.681547,2.639 C23.591546,2.678 23.812547,2.743 23.812547,3.822 L23.812547,9.035 C23.812547,10.114 23.591546,10.179 22.681547,10.218 C22.603547,10.296 22.603547,10.569 22.681547,10.647 C23.318546,10.634 23.708547,10.621 24.371547,10.621 C25.021546,10.621 25.398547,10.634 26.048547,10.647 C26.126547,10.569 26.126547,10.296 26.048547,10.218 C25.138548,10.179 24.917547,10.114 24.917547,9.035 M28.763922,6.357 C29.270921,5.863 29.686922,5.59 30.089922,5.59 C30.583921,5.59 30.947922,5.902 30.947922,6.773 L30.947922,9.035 C30.947922,10.101 30.843921,10.166 30.141922,10.218 C30.076922,10.296 30.076922,10.569 30.141922,10.647 C30.687921,10.634 30.947922,10.621 31.467922,10.621 C32.000921,10.621 32.182922,10.634 32.741922,10.647 C32.806922,10.569 32.806922,10.296 32.741922,10.218 C32.091922,10.166 31.974922,10.101 31.974922,9.035 L31.974922,6.968 C31.974922,6.786 31.974922,6.604 31.961922,6.448 C32.585921,5.759 33.092922,5.59 33.599922,5.59 C34.093921,5.59 34.405922,5.876 34.405922,6.747 L34.405922,9.035 C34.405922,10.101 34.275921,10.166 33.599922,10.218 C33.534922,10.296 33.534922,10.569 33.599922,10.647 C34.145921,10.634 34.405922,10.621 34.925922,10.621 C35.458921,10.621 35.705922,10.634 36.264922,10.647 C36.329922,10.569 36.329922,10.296 36.264922,10.218 C35.549922,10.166 35.432922,10.101 35.432922,9.035 L35.432922,6.981 C35.432922,5.824 35.211921,4.914 34.067922,4.914 C33.391922,4.914 32.676921,5.161 32.000922,5.876 C31.961922,5.915 31.883922,5.98 31.857922,5.876 C31.727922,5.343 31.233921,4.914 30.557922,4.914 C29.803922,4.914 29.231921,5.369 28.659922,5.967 C28.607922,6.019 28.529922,6.149 28.529922,5.967 C28.529922,5.577 28.594922,4.979 28.594922,4.979 C28.594922,4.914 28.542922,4.875 28.438922,4.875 C28.061922,5.018 27.541921,5.135 26.644922,5.252 C26.618922,5.33 26.644922,5.538 26.670922,5.616 C27.372921,5.694 27.515922,5.746 27.515922,6.5 L27.515922,9.035 C27.515922,10.101 27.346921,10.166 26.631922,10.218 C26.553922,10.296 26.553922,10.569 26.631922,10.647 C27.164921,10.634 27.476922,10.621 28.035922,10.621 C28.542921,10.621 28.763922,10.634 29.309922,10.647 C29.387922,10.569 29.387922,10.296 29.309922,10.218 C28.659922,10.153 28.542922,10.101 28.542922,9.035 L28.542922,6.903 C28.542922,6.63 28.659922,6.474 28.763922,6.357 M38.946781,12.649 C38.946781,12.987 39.258781,13.325 39.570781,13.325 C39.934781,13.325 40.246781,12.987 40.246781,12.701 C40.246781,12.389 39.973781,12.025 39.622781,12.025 C39.310781,12.025 38.946781,12.337 38.946781,12.649 M36.957781,7.956 C36.957781,9.282 37.854783,10.751 39.687781,10.751 C41.624779,10.751 42.443781,9.139 42.443781,7.839 C42.443781,6.487 41.728779,4.914 39.713781,4.914 C37.958783,4.914 36.957781,6.305 36.957781,7.956 M39.570781,5.343 C40.68878,5.343 41.325781,6.344 41.325781,8.255 C41.325781,9.971 40.532781,10.322 39.921781,10.322 C38.569782,10.322 38.075781,8.658 38.075781,7.657 C38.075781,6.526 38.478782,5.343 39.570781,5.343 M39.245597,1.91093 C39.193597,1.89793 39.115597,1.88493 39.050597,1.88493 C38.608597,1.88493 38.309597,2.10593 38.205597,2.18393 L38.179597,2.32693 L39.661597,3.74393 C39.869597,3.93893 39.960597,4.00393 40.038597,4.00393 C40.142597,4.00393 40.233597,3.92593 40.233597,3.86093 C40.233597,3.76993 40.220597,3.67893 40.155597,3.54893 L39.245597,1.91093 M50.866562,12.025 C51.217562,12.025 51.490562,12.389 51.490562,12.701 C51.490562,12.987 51.178562,13.325 50.814562,13.325 C50.502563,13.325 50.190562,12.987 50.190562,12.649 C50.190562,12.337 50.554563,12.025 50.866562,12.025 Z M50.697562,2.067 C52.97256,2.067 54.883562,3.77 54.883562,6.344 C54.883562,8.944 53.25856,10.751 50.775562,10.751 C48.539565,10.751 46.706562,9.152 46.706562,6.591 C46.706562,4.043 48.370565,2.067 50.697562,2.067 Z M50.528562,2.509 C49.345564,2.509 47.954562,3.64 47.954562,6.37 C47.954562,8.866 49.475564,10.309 51.035562,10.309 C52.517561,10.309 53.635562,8.918 53.635562,6.591 C53.635562,3.887 52.296561,2.509 50.528562,2.509 Z M53.117797,1.391 C53.182797,1.391 53.260797,1.404 53.312797,1.417 L53.312797,1.417 L53.312797,1.417 L54.222797,3.055 C54.287797,3.185 54.300797,3.276 54.300797,3.367 C54.300797,3.432 54.209797,3.51 54.105797,3.51 C54.027797,3.51 53.936797,3.445 53.728797,3.25 L53.728797,3.25 L52.246797,1.833 L52.272797,1.69 C52.376797,1.612 52.675797,1.391 53.117797,1.391 Z M62.367906,12.025 C62.718906,12.025 62.991906,12.389 62.991906,12.701 C62.991906,12.987 62.679906,13.325 62.315906,13.325 C62.003906,13.325 61.691906,12.987 61.691906,12.649 C61.691906,12.337 62.055906,12.025 62.367906,12.025 Z M62.458906,4.94 C64.265904,4.94 64.655906,6.11 64.655906,7.202 C64.655906,7.32116667 64.5927116,7.39519444 64.481369,7.41656019 L64.408906,7.423 L60.950906,7.397 C60.950906,8.151 61.106906,8.749 61.366906,9.178 C61.769906,9.841 62.315907,10.114 62.783906,10.114 C63.537905,10.114 63.914907,9.906 64.395906,9.412 C64.551906,9.425 64.629906,9.49 64.668906,9.62 C64.148907,10.296 63.446905,10.751 62.458906,10.751 C61.522907,10.751 60.911906,10.439 60.469906,9.919 C60.040907,9.425 59.858906,8.723 59.858906,7.995 C59.858906,6.019 61.327907,4.94 62.458906,4.94 Z M58.889797,1.547 C59.383796,1.547 59.721797,1.586 60.059797,1.82 C60.332796,2.028 60.475797,2.262 60.475797,2.483 C60.475797,2.743 60.163797,3.016 59.942797,3.016 C59.669797,3.016 59.526797,2.834 59.422797,2.6 C59.240797,2.145 59.032796,1.989 58.642797,1.989 C58.2296859,1.989 57.6598615,2.27831687 57.6182189,4.08744028 L57.615797,4.303 L57.615797,5.044 L59.019797,5.044 C59.068547,5.044 59.102672,5.058625 59.1166876,5.087875 L59.123797,5.122 L59.123797,5.382 C59.123797,5.48228571 58.9900827,5.53481633 58.8781993,5.54777843 L58.824797,5.551 L57.615797,5.551 L57.615797,9.035 C57.615797,10.114 57.758798,10.166 58.642797,10.218 C58.720797,10.296 58.720797,10.569 58.642797,10.647 C58.083797,10.634 57.706796,10.621 57.108797,10.621 C56.575797,10.621 56.289796,10.634 55.743797,10.647 C55.665797,10.569 55.665797,10.296 55.743797,10.218 C56.4088487,10.1687368 56.5721958,10.1194737 56.587548,9.19698353 L56.588797,9.035 L56.588797,5.551 L55.691797,5.551 C55.652797,5.551 55.6357345,5.5436875 55.6296408,5.51260937 L55.626797,5.473 L55.626797,5.304 C55.626797,5.213 55.6765626,5.0821875 55.8457658,5.05090625 L55.925797,5.044 L56.588797,5.044 L56.588797,4.524 C56.588797,2.496 57.797798,1.547 58.889797,1.547 Z M62.458906,5.369 C62.1610878,5.369 61.3183977,5.47560537 61.0275789,6.762946 L60.989906,6.955 L63.342906,6.916 C63.485906,6.916 63.537906,6.851 63.537906,6.734 C63.537906,5.642 62.952906,5.369 62.458906,5.369 Z M63.069471,1.87183 C63.147471,1.87183 63.485472,1.88484 63.784471,2.17083 L63.784471,2.17083 L63.823471,2.31383 L62.328471,3.73083 C62.133471,3.92583 62.029471,3.97783 61.938471,3.97783 C61.847471,3.97783 61.756471,3.89983 61.756471,3.80883 C61.756471,3.66584 61.795471,3.61383 61.899471,3.44483 L61.899471,3.44483 L62.887471,1.89783 C62.926471,1.88483 63.004471,1.87183 63.069471,1.87183 Z" id="yo-tagline" fill="#000000" fill-rule="nonzero"></path>
    </g>
</svg>

<svg xmlns="http://www.w3.org/2000/svg" width="65" height="14"><path fill="#000" fill-rule="nonzero" d="M1.099 0A2.612 2.612 0 0 0 .11.585l2.001.819c.273.117.455.156.56.156a.2.2 0 0 0 .194-.195c0-.091-.052-.169-.195-.273L1.1 0m1.196 9.035V3.822c0-1.079.22-1.144 1.13-1.183.079-.078.079-.351 0-.429-.636.013-1.027.026-1.69.026-.65 0-1.027-.013-1.677-.026-.078.078-.078.351 0 .429.91.039 1.131.104 1.131 1.183v5.213c0 1.079-.22 1.144-1.13 1.183-.079.078-.079.351 0 .429.636-.013 1.027-.026 1.69-.026.65 0 1.027.013 1.676.026.079-.078.079-.351 0-.429-.91-.039-1.13-.104-1.13-1.183M6.31 5.447c.078-.078.078-.351 0-.429-.481.013-.884.026-1.352.026-.494 0-.806-.013-1.144-.026-.078.078-.078.351 0 .429.61.065.754.195 1.027.871l1.703 4.199c.078.182.182.26.312.26.117 0 .22-.078.312-.286L8.48 7.293l1.339 3.224c.078.182.182.26.312.26.117 0 .22-.078.299-.273l1.69-4.121c.22-.52.442-.897 1.105-.936.078-.078.078-.351 0-.429-.325.013-.442.026-.91.026-.494 0-.871-.013-1.352-.026-.078.078-.078.351 0 .429.975.052.832.429.65.884l-1.08 2.704c-.13.325-.142.429-.298.052L9.118 6.24c-.234-.611-.208-.741.48-.793.079-.078.079-.351 0-.429-.48.013-.844.026-1.3.026-.454 0-.662-.013-1.143-.026-.078.078-.078.351 0 .429.663.052.754.442.988 1.014l.09.208-.91 2.301c-.168.429-.207.455-.376.026l-1.04-2.678c-.234-.624-.221-.832.403-.871m10.57-3.549-.988 1.547c-.104.169-.143.221-.143.364 0 .091.091.169.182.169s.195-.052.39-.247l1.495-1.417-.039-.143a1.057 1.057 0 0 0-.715-.299.678.678 0 0 0-.182.026m-1.898 5.057c.247-1.469 1.157-1.586 1.47-1.586.493 0 1.078.273 1.078 1.365 0 .117-.052.182-.195.182l-2.353.039m3.406 2.457c-.48.494-.858.702-1.612.702-.468 0-1.014-.273-1.417-.936-.26-.429-.416-1.027-.416-1.781l3.458.026c.156 0 .247-.078.247-.221 0-1.092-.39-2.262-2.197-2.262-1.13 0-2.6 1.079-2.6 3.055 0 .728.182 1.43.611 1.924.442.52 1.053.832 1.99.832.987 0 1.69-.455 2.21-1.131-.04-.13-.118-.195-.274-.208M23.722 0a2.612 2.612 0 0 0-.988.585l2.002.819c.273.117.455.156.559.156a.2.2 0 0 0 .195-.195c0-.091-.052-.169-.195-.273L23.722 0m1.196 9.035V3.822c0-1.079.22-1.144 1.13-1.183.079-.078.079-.351 0-.429-.636.013-1.026.026-1.69.026-.65 0-1.026-.013-1.676-.026-.078.078-.078.351 0 .429.91.039 1.13.104 1.13 1.183v5.213c0 1.079-.22 1.144-1.13 1.183-.078.078-.078.351 0 .429.637-.013 1.027-.026 1.69-.026.65 0 1.027.013 1.677.026.078-.078.078-.351 0-.429-.91-.039-1.131-.104-1.131-1.183m3.846-2.678c.507-.494.923-.767 1.326-.767.494 0 .858.312.858 1.183v2.262c0 1.066-.104 1.131-.806 1.183-.065.078-.065.351 0 .429.546-.013.806-.026 1.326-.026.533 0 .715.013 1.274.026.065-.078.065-.351 0-.429-.65-.052-.767-.117-.767-1.183V6.968c0-.182 0-.364-.013-.52.624-.689 1.13-.858 1.638-.858.494 0 .806.286.806 1.157v2.288c0 1.066-.13 1.131-.806 1.183-.065.078-.065.351 0 .429.546-.013.806-.026 1.326-.026.533 0 .78.013 1.339.026.065-.078.065-.351 0-.429-.715-.052-.832-.117-.832-1.183V6.981c0-1.157-.221-2.067-1.365-2.067-.676 0-1.391.247-2.067.962-.04.039-.117.104-.143 0-.13-.533-.624-.962-1.3-.962-.754 0-1.326.455-1.898 1.053-.052.052-.13.182-.13 0 0-.39.065-.988.065-.988 0-.065-.052-.104-.156-.104-.377.143-.897.26-1.794.377-.026.078 0 .286.026.364.702.078.845.13.845.884v2.535c0 1.066-.17 1.131-.884 1.183-.078.078-.078.351 0 .429.533-.013.845-.026 1.404-.026.507 0 .728.013 1.274.026.078-.078.078-.351 0-.429-.65-.065-.767-.117-.767-1.183V6.903c0-.273.117-.429.22-.546m10.184 6.292c0 .338.312.676.624.676.364 0 .676-.338.676-.624 0-.312-.273-.676-.624-.676-.312 0-.676.312-.676.624m-1.99-4.693c0 1.326.898 2.795 2.73 2.795 1.938 0 2.757-1.612 2.757-2.912 0-1.352-.715-2.925-2.73-2.925-1.755 0-2.756 1.391-2.756 3.042m2.613-2.613c1.118 0 1.755 1.001 1.755 2.912 0 1.716-.793 2.067-1.404 2.067-1.352 0-1.846-1.664-1.846-2.665 0-1.131.403-2.314 1.495-2.314m-.325-3.432a.884.884 0 0 0-.195-.026 1.39 1.39 0 0 0-.845.299l-.026.143 1.482 1.417c.208.195.299.26.377.26.104 0 .195-.078.195-.143a.644.644 0 0 0-.078-.312l-.91-1.638m11.62 10.114c.352 0 .625.364.625.676 0 .286-.312.624-.676.624-.312 0-.624-.338-.624-.676 0-.312.364-.624.676-.624Zm-.168-9.958c2.275 0 4.186 1.703 4.186 4.277 0 2.6-1.625 4.407-4.108 4.407-2.236 0-4.07-1.599-4.07-4.16 0-2.548 1.665-4.524 3.992-4.524Zm-.17.442c-1.182 0-2.573 1.131-2.573 3.861 0 2.496 1.52 3.939 3.08 3.939 1.483 0 2.6-1.391 2.6-3.718 0-2.704-1.338-4.082-3.106-4.082Zm2.59-1.118c.065 0 .143.013.195.026l.91 1.638c.065.13.078.221.078.312 0 .065-.091.143-.195.143-.078 0-.17-.065-.377-.26l-1.482-1.417.026-.143a1.39 1.39 0 0 1 .845-.299Zm9.25 10.634c.35 0 .624.364.624.676 0 .286-.312.624-.676.624-.312 0-.624-.338-.624-.676 0-.312.364-.624.676-.624Zm.09-7.085c1.808 0 2.198 1.17 2.198 2.262 0 .12-.063.193-.175.215l-.072.006-3.458-.026c0 .754.156 1.352.416 1.781.403.663.949.936 1.417.936.754 0 1.13-.208 1.612-.702.156.013.234.078.273.208-.52.676-1.222 1.131-2.21 1.131-.936 0-1.547-.312-1.99-.832-.428-.494-.61-1.196-.61-1.924 0-1.976 1.469-3.055 2.6-3.055ZM58.89 1.547c.494 0 .832.039 1.17.273.273.208.416.442.416.663 0 .26-.312.533-.533.533-.273 0-.416-.182-.52-.416-.182-.455-.39-.611-.78-.611-.413 0-.983.29-1.025 2.098l-.002.216v.741h1.404c.049 0 .083.015.097.044l.007.034v.26c0 .1-.134.153-.246.166l-.053.003h-1.21v3.484c0 1.079.144 1.131 1.028 1.183.078.078.078.351 0 .429-.56-.013-.936-.026-1.534-.026-.533 0-.82.013-1.365.026-.078-.078-.078-.351 0-.429.665-.05.828-.099.844-1.021V5.551h-.896c-.04 0-.056-.007-.062-.038l-.003-.04v-.169c0-.091.05-.222.219-.253l.08-.007h.663v-.52c0-2.028 1.209-2.977 2.3-2.977Zm3.569 3.822c-.298 0-1.14.107-1.431 1.394l-.038.192 2.353-.039c.143 0 .195-.065.195-.182 0-1.092-.585-1.365-1.08-1.365Zm.61-3.497c.078 0 .416.013.715.299l.04.143-1.496 1.417c-.195.195-.299.247-.39.247-.09 0-.182-.078-.182-.17 0-.142.04-.194.143-.363l.988-1.547a.678.678 0 0 1 .182-.026Z"/></svg>
